X:1
T:Shindler, SM
T:Shindler, SM
T:Anonymous
T:Public Domain Courtesy of the Cyber Hymnal™
C:Anonymous
Z:Public Domain
Z:Courtesy of the Cyber Hymnal™
%%score ( 1 2 ) ( 3 4 )
L:1/8
Q:1/4=105
M:3/4
K:C
V:1 treble 
V:2 treble 
V:3 bass 
V:4 bass 
V:1
 [EA]3 | ([Ec][GB]) [Ac] [EA]2 [GB] | [EA]3 [Ae]3 | (ge) [Ee] ([Dd] [Ec])[Gd] x | [Ae]3 [Ae]3 | %5
 (ge) [^Ge] (e d)[Gc] | ([EA][GB]) [Ac] (G E)[D^G] | [EA]2 [Ec] E2 [D^G] | !fermata![EA]3 |] %9
V:2
 x3 | x6 | x6 | G2 x5 | x6 | ^G3 A2 x | x3 ^G E x | x3 E2 x | x3 |] %9
V:3
 [E,E]3 | ([C,C][D,D]) [E,E] [E,E]2 [E,G] | [A,,E]3 [E,A,]3 | [G,C]2 A, (D E)[F,D] x | %4
 [E,E]3 [E,E]3 | [G,C]2 [E,B,] [A,C]2 [G,D] | [E,E]2 [D,D] [G,D]2 [E,D] | %7
 [E,E]2 [A,A] [E,E]2 [E,D] | !fermata![A,,E]3 |] %9
V:4
 x3 | x6 | x6 | x2 A, G,4 | x6 | x6 | x6 | x6 | x3 |] %9

